subcellular/assets/icons/svg/message-warning.svg

<svg xmlns="http://www.w3.org/2000/svg" width="32" height="32" viewBox="0 0 32 32"><path fill="#FFF93F" d="M29.639 25.799c.48.48.482 1.26 0 1.74h-27.278c-.48-.48-.482-1.26 0-1.74l12.768-20.977c.48-.481 1.262-.481 1.742 0l12.768 20.977z"/><path d="M16 5.461c.028 0 .066.005.104.024l12.68 20.833.063.102.085.085c.011.012.021.022.028.034h-25.92c.008-.011.017-.021.027-.033l.085-.084.063-.104 12.68-20.833c.039-.019.077-.024.105-.024m0-1c-.315 0-.631.12-.871.361l-12.768 20.977c-.482.48-.48 1.26 0 1.74h27.277c.482-.48.48-1.26 0-1.74l-12.767-20.977c-.24-.241-.556-.361-.871-.361zM14.635 24.185c0-.833.578-1.435 1.391-1.435.809 0 1.34.602 1.34 1.435 0 .81-.531 1.435-1.389 1.435-.788-.001-1.342-.626-1.342-1.435zm.578-3.285l-.322-11.126h2.221l-.325 11.126h-1.574z"/></svg>

<?xml version="1.0" encoding="utf-8"?>
<!-- Generator: Adobe Illustrator 14.0.0, SVG Export Plug-In . SVG Version: 6.00 Build 43363)  -->
<!DOCTYPE svg PUBLIC "-//W3C//DTD SVG 1.1//EN" "http://www.w3.org/Graphics/SVG/1.1/DTD/svg11.dtd">
<svg version="1.1" id="Layer_1" xmlns="http://www.w3.org/2000/svg" xmlns:xlink="http://www.w3.org/1999/xlink" x="0px" y="0px"
	 width="32px" height="32px" viewBox="0 0 32 32" enable-background="new 0 0 32 32" xml:space="preserve">
<path fill="#FFF93F" d="M29.641,25.8c0.479,0.48,0.479,1.261,0,1.74H2.36c-0.48-0.479-0.48-1.26,0-1.74L15.13,4.82
	c0.48-0.48,1.26-0.48,1.74,0L29.641,25.8z"/>
<path d="M16,5.46c0.028,0,0.066,0.006,0.104,0.025l12.68,20.833l0.063,0.102l0.084,0.085c0.01,0.013,0.021,0.022,0.028,0.034H3.04
	c0.008-0.018,0.017-0.027,0.027-0.04l0.085-0.083l0.063-0.104L15.895,5.48c0.04-0.02,0.077-0.023,0.105-0.023 M16,4.457
	c-0.315,0-0.63,0.12-0.87,0.36L2.36,25.8c-0.48,0.48-0.48,1.261,0,1.74h27.281c0.481-0.479,0.479-1.26,0-1.74L16.87,4.82
	C16.63,4.58,16.315,4.46,16,4.46V4.457z M14.635,24.18c0-0.832,0.578-1.434,1.39-1.434c0.81,0,1.34,0.6,1.34,1.434
	c0,0.811-0.53,1.436-1.388,1.436C15.189,25.615,14.635,24.988,14.635,24.18L14.635,24.18z M15.213,20.896L14.89,9.773h2.221
	L16.787,20.9h-1.574V20.896z"/>
</svg>
